X: 1
T: Bert Mackenzie's waltz
T: Bert Mackenzie's 70th Birthday
C: Louise MacKenzie (1999)
R: waltz
Z: 2015 John Chambers <jc:trillian.mit.edu>
S: printed copy of unknown origin, from Lance Ramshaw
N: Louise is Bert's daughter.
M: 3/4
L: 1/8
K: D
(3A,B,D "A"|\
"D"F2 FE FA | "/c#"F2 FE FA  | "Bm"B2 Bd BA | "D"FA3 dc |\
"G"B2 Bd BA | "D"F3 E DB, |1 "A7"A,3 F GF | EA,3 :|2 "A7"A,3 F ED | "D"D4 |]
dc "B"|\
"G"B2 Bd BA | "D"FA3 dc  | "G(Bm)"B2 Bc de | "F#m"f2 fa (3fed |\
"G"B2 Bc dB | "D"AF- FE DB, | "A7"A,3 F GF | EA,3 |]
(3A,B,D "A3"|\
"D"F2 FE FA | "/c#"F2 FE FA | "Bm"B2 Bd BA | "D"FA3 dc |\
"G"B2 Bd BA | "D"F3  E DB, | "A7"A,3 F ED | "D"D4 |]

%%sep 1 1 500

